X:104
T: Christi Klage (2-6) S. 29
N: P0879
O: Lothringen
S: PINCK, Louis: Verklingende Weisen, Bd 2, Metz 1928]
R: geistliche, religise Lieder]
M: 3/8
L: 1/8
K: F
F | C2F | _A2G | F2E | F2
_E | _A2B | c2_d | c_AB | c2
c | _e2c | _dcB | c2B | _A2
c | c2B | B_AG | F2E | F2

@@@ Tune index: 7654
